!!!COM: Bach, Johann Sebastian
!!!OPR: Joh. Seb. Bachs vierstimmige Choralges‰nge
!!!XEN: Four-part Chorales
!!!OTL: 39. Den Vater dort oben
!!!SCT: BWV 292
!!!SCA: Thematisch-systematisches Verzeichnis der musikalischen Werke Johann Sebastian Bach: Bach-Werke-Verzeichnis (Schmieder)
!!!YOR: Bach Gesellschaft Edition xxxix
!!!ENC: Steven Rasmussen
!!!CDT: 1685/3//-1750/7/28/
!!!OCY: Deutschland
!!!YEC: Copyright (c) 1994, 2000 Center for Computer Assisted Research in the Humanities
!!!YEM: Rights to all derivative editions reserved
!!!YEN: United States of America
**kern	**silbe	**kern	**silbe	**kern	**silbe	**kern
*I:[SOPRANO]	*I:[SOPRANO]	*I:[ALTO]	*I:[ALTO]	*I:[TENORE]	*I:[TENORE]	*I:[BASSO]
*clefG2	*	*clefG2	*	*clefGv2	*	*clefF4
*k[]	*	*k[]	*	*k[]	*	*k[]
*C:	*	*C:	*	*C:	*	*C:
*M4/4	*	*M4/4	*	*M4/4	*	*M4/4
=1-	=1-	=1-	=1-	=1-	=1-	=1-
4g	Den	4e	.	4c	.	4.C
4g	Va-	4d	.	4G	.	.
.	.	.	.	.	.	8BB
4a	-ter	8eL	.	4c	.	4AA
.	.	8f#J	.	.	.	.
4b	dort	4g	.	4d	.	8GGL
.	.	.	.	.	.	8FFJ
=2	=2	=2	=2	=2	=2	=2
2cc	o-	4g	.	8cL	.	4EE
.	.	.	.	8B-J	.	.
.	.	4f	.	4A	.	4FF
2cc;	-ben	(4f	.	2G;	.	2CC;
.	.	4e;)	.	.	.	.
=3	=3	=3	=3	=3	=3	=3
4ee	wol-	4g	.	8cL	.	4.C
.	.	.	.	8BJ	.	.
4dd	-len	8f#L	.	8AL	.	.
.	.	16gL	.	16BL	.	8BB
.	.	16f#JJ	.	16AJJ	.	.
4cc	wir	8eL	.	8GL	.	8BBL
.	.	8aJ	.	8F#J	.	8AAJ
4b	nun	8dL	.	4G	.	8GGL
.	.	16cL	.	.	.	16AAL
.	.	16dJJ	.	.	.	16BBJJ
=4	=4	=4	=4	=4	=4	=4
2a	lo-	8eL	.	4.G	.	8CL
.	.	8c	.	.	.	8AAJ
.	.	8A	.	.	.	4D
.	.	16dL	.	8F#	.	.
.	.	16cJJ	.	.	.	.
2g;	-ben,	2B;	.	2D;	.	2GG;
=5	=5	=5	=5	=5	=5	=5
4g	der	4e	.	4B	.	(8EE
.	.	.	.	.	.	4E)
4g	uns	4e	.	4B	.	.
.	.	.	.	.	.	8D
4a	als	8eL	.	4c	.	4C
.	.	8f#J	.	.	.	.
4b	ein	4g	.	4d	.	4BB
=6	=6	=6	=6	=6	=6	=6
4cc	mil-	8gL	.	4c	.	4AA
.	.	8fJ	.	.	.	.
4g	-der	8fL	.	8dL	.	4BB
.	.	16eL	.	8GJ	.	.
.	.	16dJJ	.	.	.	.
2g;	Gott	2e;	.	2c;	.	2C;
=7	=7	=7	=7	=7	=7	=7
4a	gn√§-	8fL	.	4c	.	4.F
.	.	8eJ	.	.	.	.
4g	-dig-	8dL	.	8BL	.	.
.	.	16eL	.	16cL	.	8E
.	.	16dJJ	.	16BJJ	.	.
4f	-lich	8cL	.	8AL	.	8EL
.	.	8BJ	.	8dJ	.	8DJ
4e	ge-	4c	.	8GL	.	8CL
.	.	.	.	16FL	.	16DL
.	.	.	.	16GJJ	.	16EJJ
=8	=8	=8	=8	=8	=8	=8
4d	-spei-	4c	.	8AL	.	8FL
.	.	.	.	8FJ	.	8DJ
4d	-set	8cL	.	8DL	.	8GL
.	.	8BJ	.	16GL	.	8GGJ
.	.	.	.	16FJJ	.	.
2c;	hat,	2G;	.	2E;	.	2C;
=9	=9	=9	=9	=9	=9	=9
4cc	und	4g	und	(4e	und	(4.C
4dd	Chri-	[4g	Chri-	4d)	.	.
.	.	.	.	.	.	8BB)
4cc	-stum	8gL]	.	8GL	Chri-	4E
.	.	8f#J	.	8AJ	.	.
4b	sei-	4g	-stum	8BL	-stum	4D
.	.	.	.	16cL	.	.
.	.	.	.	16dJJ	.	.
=10	=10	=10	=10	=10	=10	=10
2a	-nen	4g	sei-	8eL	.	4C
.	.	.	.	8cJ	.	.
.	.	4f#	-nen	8AL	.	4D
.	.	.	.	16dL	.	.
.	.	.	.	16cJJ	.	.
2g;	Sohn,	2g;	Sohn,	2B;	.	2GG;
=11	=11	=11	=11	=11	=11	=11
4g	durch	8eL	.	4c	.	8CL
.	.	8fJ	.	.	.	8DJ
4g	wel-	4g	.	4c	.	4E
4a	-chen	8gL	.	4c	.	8FL
.	.	16fL	.	.	.	8EJ
.	.	16eJJ	.	.	.	.
4b	der	4f	.	4d	.	4D
=12	=12	=12	=12	=12	=12	=12
4cc	Se-	8fL	.	4G	.	4.C
.	.	8eJ	.	.	.	.
4g	-gen	4d	.	8.GL	.	.
.	.	.	.	.	.	8BB
.	.	.	.	16FJk	.	.
2g;	kommt	2c;	.	2E;	.	2C;
=13	=13	=13	=13	=13	=13	=13
4a	vom	8c	vom	4F	.	4F
.	.	4f	al-	.	.	.
4g	al-	.	.	8GL	al-	(4C
.	.	[8e	-ler-	16cL	.	.
.	.	.	.	16B-JJ	.	.
4f	-ler-	8eL]	.	4A	.	4D)
.	.	8dJ	.	.	.	.
4e	-h√∂ch-	[4c	-h√∂ch-	4A	-ler-	8AAL
.	.	.	.	.	.	8GGJ
=14	=14	=14	=14	=14	=14	=14
2d	-sten	8cL]	.	8AL	-h√∂ch-	4FF
.	.	16BL	.	8DJ	.	.
.	.	16AJJ	.	.	.	.
.	.	4B	-sten	8DL	-sten	4GG
.	.	.	.	16GL	.	.
.	.	.	.	16FJJ	.	.
2c;	Thron.	2G;	.	2E;	.	2CC;
==|!	==|!	==|!	==|!	==|!	==|!	==|!
*-	*-	*-	*-	*-	*-	*-
!!!RWG: Key is interpreted using the Humdrum key tool.
!!!END: 1994/05/16
!!!EMD: Converted from MuseData to Humdrum Dec 19, 2000, by Andreas Kornstaedt using muse2kern.
!!!EED: Craig Stuart Sapp
!!!EEV: 2024/03/31
!!!ONB: Some non-unicode characters
